src/assets/link.svg

<svg fill="none" height="23" viewBox="0 0 23 23" width="23" xmlns="http://www.w3.org/2000/svg"><g fill="#000"><path d="m13.1656 9.79712-.6021-.60215c-.1651-.15937-.4267-.15937-.5918 0-.1691.16342-.1738.43298-.0104.60215l.6022.60218c1.1617 1.1652 1.1617 3.0506 0 4.2158l-6.02236 6.0224c-1.16523 1.1617-3.05066 1.1617-4.21588 0l-.60215-.6022c-1.162137-1.165-1.162137-3.0509 0-4.2159l6.02232-6.02228c.15938-.16502.15938-.42665 0-.59166-.16336-.16917-.43298-.17386-.60215-.01049l-6.02232 6.02233c-1.494614 1.4976-1.494614 3.9226 0 5.4202l.60215.6021c.71808.7193 1.69327 1.1227 2.70966 1.1208 1.01666.002 1.99216-.4014 2.71051-1.1208l6.02232-6.0223c1.4939-1.4979 1.4939-3.9223 0-5.42018z"/><path d="m21.879 1.72311-.6022-.60215c-1.4976-1.494614-3.9226-1.494614-5.4202 0l-6.02229 6.02233c-1.49392 1.49791-1.49392 3.92221 0 5.42021l.60219.6021c.165.1594.4266.1594.5917 0 .1691-.1634.1738-.433.0104-.6021l-.6021-.6022c-1.16175-1.1652-1.16175-3.05064 0-4.21587l6.0223-6.02232c1.1652-1.161711 3.0506-1.161711 4.2159 0l.6021.60215c1.1621 1.16501 1.1621 3.05087 0 4.21588l-6.0223 6.02236c-.0798.0798-.1247.1881-.1247.3009 0 .2352.1906.4259.4258.426.113.0003.2214-.0446.301-.1248l6.0224-6.02231c1.4946-1.4976 1.4946-3.92258 0-5.42018z"/></g></svg>

<svg width="23" height="23" viewBox="0 0 23 23" fill="none" xmlns="http://www.w3.org/2000/svg">
<path d="M13.1656 9.79712L12.5635 9.19497C12.3984 9.0356 12.1368 9.0356 11.9717 9.19497C11.8026 9.35839 11.7979 9.62795 11.9613 9.79712L12.5635 10.3993C13.7252 11.5645 13.7252 13.4499 12.5635 14.6151L6.54114 20.6375C5.37591 21.7992 3.49048 21.7992 2.32526 20.6375L1.72311 20.0353C0.560973 18.8703 0.560973 16.9844 1.72311 15.8194L7.74543 9.79712C7.90481 9.6321 7.90481 9.37047 7.74543 9.20546C7.58207 9.03629 7.31245 9.0316 7.14328 9.19497L1.12096 15.2173C-0.373654 16.7149 -0.373654 19.1399 1.12096 20.6375L1.72311 21.2396C2.44119 21.9589 3.41638 22.3623 4.43277 22.3604C5.44943 22.3624 6.42493 21.959 7.14328 21.2396L13.1656 15.2173C14.6595 13.7194 14.6595 11.295 13.1656 9.79712Z" fill="black"/>
<path d="M21.879 1.72311L21.2768 1.12096C19.7792 -0.373654 17.3542 -0.373654 15.8566 1.12096L9.83431 7.14329C8.34039 8.6412 8.34039 11.0655 9.83431 12.5635L10.4365 13.1656C10.6015 13.325 10.8631 13.325 11.0282 13.1656C11.1973 13.0022 11.202 12.7326 11.0386 12.5635L10.4365 11.9613C9.27475 10.7961 9.27475 8.91066 10.4365 7.74543L16.4588 1.72311C17.624 0.561399 19.5094 0.561399 20.6747 1.72311L21.2768 2.32526C22.4389 3.49027 22.4389 5.37613 21.2768 6.54114L15.2545 12.5635C15.1747 12.6433 15.1298 12.7516 15.1298 12.8644C15.1298 13.0996 15.3204 13.2903 15.5556 13.2904C15.6686 13.2907 15.777 13.2458 15.8566 13.1656L21.879 7.14329C23.3736 5.64569 23.3736 3.22071 21.879 1.72311Z" fill="black"/>
</svg>
